X: 5
T: Mac's Fancy
R: jig
M: 6/8
L: 1/8
K: Amix
e3 fed | eAA Bcd |eAA gfe | dBG Bcd |eAA fed | eAA Bcd | g3 gfe | dBG :|A2 a aea | aea aea | A2 a aef | gfe dBG | A2 a aea | aea aef |1 g3 gfe | dBG :|2 A2 a aef | g3 gfe | dBG BdB | G6 ||a3 g3 | A2 e e3 | A2 e e3 | A2 e e3 | G2 d d3 | A2 e e3 | A2 e e3 | BAG c2 A | G2 G z3 | A2 e e3 | A2 e e3 | A2 e e3 | G2 d d3 | A2 e e3 | A2 e e3 | BAG c2 A | G2 G z3 | Ace A2 e | A2 e A2 e | Ace A2 e |G3 G2 G | Ace A2 e | A2 e A2 e | BAG c2 A | G2 G z3 | Ace A2 e | A2 e A2 e | Ace A2 e | G3 G2 G | Ace A2 e | A2 e A2 e | Ace A2 e | BAG c2 A | G3 G3 | G6 ||


Tune 2724	Setting 15967

